dist/svgs/org-eye.svg

<svg xmlns="http://www.w3.org/2000/svg" viewBox="0 0 512 512"><path d="M510 243q4 9 0 18-22 42-50.5 74.5t-61 55.5-69 35-73.5 12q-38 0-74-12t-68.5-35-61-55.5T2 261q-5-9 0-18 22-42 50.5-74.5t61-55.5T182 78t74-12q37 0 73.5 12t69 35 61 55.5T510 243zM256 399q63 0 119-38t96-109q-40-71-96-109t-119-38-119 38-96 109q40 71 96 109t119 38zm0-246q42 0 70.5 28.5T355 252t-28.5 70.5T256 351t-70.5-28.5T157 252t28.5-70.5T256 153zm0 160q26 0 43.5-17.5T317 252t-17.5-43.5T256 191t-43.5 17.5T195 252t17.5 43.5T256 313z"/></svg>

<?xml version="1.0" encoding="UTF-8" standalone="no"?><svg   xmlns:svg="http://www.w3.org/2000/svg"   xmlns="http://www.w3.org/2000/svg"   version="1.1"   width="512"   height="512"   viewBox="0 0 512 512">  <path     d="M510 243Q514 252 510 261Q488 303 459.5 335.5T398.5 391T329.5 426T256 438Q218 438 182 426T113.5 391T52.5 335.5T2 261Q-3 252 2 243Q24 201 52.5 168.5T113.5 113T182 78T256 66Q293 66 329.5 78T398.5 113T459.5 168.5T510 243zM256 399Q319 399 375 361T471 252Q431 181 375 143T256 105T137 143T41 252Q81 323 137 361T256 399zM256 153Q298 153 326.5 181.5T355 252T326.5 322.5T256 351T185.5 322.5T157 252T185.5 181.5T256 153zM256 313Q282 313 299.5 295.5T317 252T299.5 208.5T256 191T212.5 208.5T195 252T212.5 295.5T256 313z"     id="org-eye" /></svg>
